X:626
%%etbk:tnset id:368,pos:1,rep:3x,ant:
%%etbk:wsite https://thesession.org/tunes/212
%%etbk:video src:ytube,cde:,desc:
%%etbk:pldat 2015-08-16T15:30,2015-08-11T16:03,2015-08-09T16:42,2015-07-27T18:05,2015-07-24T17:50,2015-07-18T16:43,2015-07-17T11:34,2015-07-15T17:12,2015-07-11T14:38,2015-07-08T11:14,2015-06-05T16:39,2015-06-01T16:48,2015-05-31T11:45,2015-05-18T19:13,2015-05-17T13:42,2015-05-06T15:15,2015-04-06T12:19,2015-04-04T15:46,2015-02-11T17:52,2015-02-09T19:47,2015-02-03T16:19,2015-02-02T19:45,2015-01-31T16:09,2015-01-27T17:35,2015-01-26T19:00,2015-01-25T16:12,2015-01-24T13:21,2015-01-22T19:24,2015-01-21T17:50,2015-01-20T15:30,2015-01-19T19:03
T: The Oak Tree
Z: Piano Box Version by Martin Fleischmann
H: Created 2015-01-17 /  Last Modified 2015-07-11
R: reel
M: 4/4
L: 1/8
K: Dmaj
"D"!3!FD AD FDAD|!2!FAAF !3!GF!1!E!2!D|"am"!1!A,A,A,B, =CDEC | A,A,A,B, =C!4!D!2!EG|
"D"!3!(3FED AD FDAD | !2!FAAF GF!1!E!1!D| "G"!2!(3Bcd !2!ef "A"!4!g!1!e!2!ce |1 "D"!3!d2dc dz!1!A!3!G :|2 "D"!3!(3ded ce !1!dfeg|
|: "bm"!3!fB (3BBB !3!fa^ge | !3!fe!1!ce !3!fae!1!d | "A"!2!cAAA !4!fA!3!eA  |!2!cAea !4!fece |
"bm"!4!fB (3BBB !3!fa^ge | !3!fe!1!ce !4!f2 e!2!c | "A"!1!A!1!Bc!3!e !5!~a3!1!e |1!2!faec "bm"B2a^g :|2 faec "bm"~B3c|
|: "D"!3!d2fd Adfd | "A"!2!c2ec Acec | "D"!1!d2!3!f!2!d !1!Ad!3!fg |1 "A"afge !1!d!2!c!1!Bc:|2 "A"afge "D"d4 ||
|"var bar 3"!1!A,A,A,!2!G, A,A,A,!2!G, |


